X: 780
T: Gayrıdan Bulmaz Tesellî
C: Kazasker Mustafa İzzet Efendi
O: Turkey
F: http://compmusic.upf.edu/node/140
N: bestenigar--sarki--agiraksak--gayridan_bulmaz--kazasker_mustafa_izzet_efendi
N: makam= bestenigar
N: form= sarki
N: usul= agiraksak = 9/4
M: 9/4
L: 1/16
K: C _2/4B _3/4d  
Q: 1/4=63
%%MIDI tuningsystem comma53
c2d4_1/4B2 c2A2 B2G2 A3^F GF^EG F3G A2B2 c2d2  | \
w:  ARANAĞME  | 
e2f4ag gffe eddc _1/4B2e4dc c4 G2AB c4  | 
w:   | 
c2d4_1/4B2 c2A2 B2G2 A3B c2d2 c3d B3c A3B  | \
w:   | 
A3^F G2A2 _1/4B2c2 d2cB A3B AGGF F3d cBAB c4  | 
w:   | 
c2d4_1/4B2 c2A2 B2G2 A3^F GF^EG F3G A2B2 c2d2  | \
w:  ARANAĞME  | 
e2f4ag gffe eddc _1/4B2e4dc c4 G2AB c4  | 
w:   | 
c2d4_1/4B2 c2A2 B2G2 A3B c2d2 c3d B3c A3B  | \
w:   | 
A3^F G2A2 _1/4B2c2 d2cB A3B AGGF F3d cBAG F4  | 
w:   | 
z8 z2c4d2 d2c4_1/4B2 c3B A4 B4  | \
w:  Gay rı dan  *  *  bul  | 
dc_1/4BA G6A4B2 c4 d2ef edcB c8  | 
w:  *  *  *  *  *  maz  te sel *  *  *  lî   | 
z4 c2d2 e2f4g2 e3d d3c c2d2 e2f2 g2a2  | \
w:  sev *  *  *  *  *  *  *  *  *  *  *  *  di  | 
g3f f3e e3d d2dc c2_1/4BA e2dc c6B2 A2B2  | 
w:  ğim  *  *  *  *  *  *  a  *  câ *  *  *  *  *  nım   SAZ  | 
c8 z2c4a2 g2f2 e2d2 c3d e2f2 g2a2  | \
w:  *  Sen de dir  *  *  *  dî  | 
gfed c2_1/4B2 B2A4B2 c3e d2c2 B2cB A4 z4  | 
w:  *  *  *  *  *  *  *  vâ ne  gön *  *  *  lüm   | 
A_1/4BAG A2c2 B2d2 c2B2 ABAG ^F4 d3c B4 d4  | \
w:  sen  *  *  *  *  *  *  *  *  *  *  *  *  *  *  sen *  *  de  | 
c3_1/4B A2c2 B3A G2A2 B6AG AG^F^E F4 =d3^e  | 
w:  dir  *  *  *  *  *  *  a  câ *  *  nım   *  *  *  *  SAZ  | 
^f8 z2f4a2 a3g g3f agf^e f2g2 f2e2  | \
w:  *  Â şı kım  *  *  *  ey  | 
ag^f^e =d2^c2 z2d2 c2d2 e2f2 g2a_1/4b agfe f8  | 
w:  *  *  *  *  *  *  le  *  te cel *  *  *  *  lî   | 
z4 ^f2a2 g4 a2_1/4b2 a2g2 f2e2 f2g2 a2b2 c'2ba  | \
w:  sev *  *  *  *  *  *  *  *  *  *  *  *  di  | 
a2ga g2^f2 z2e4f2 g2a2 g2f2 c'3_1/4b a4 a2gf  | 
w:  ğim   *  *  *  *  Sen de dir  *  *  *  dî  | 
=bag^f e4 e2e4f2 g3b a2gf agfe =d4 z4  | \
w:  *  *  *  *  *  *  vâ ne  gön *  *  *  *  lüm   | 
=d4 e4 z2d2 e2^f2 a2g2 =f2e2 e_3/4dcd c2_1/4B2 g4  | 
w:  sen  *  sen *  *  *  *  *  *  *  *  *  *  *  *  de  | 
f3e d2f2 e3d c2de d3c _1/4Bedc c6B2 A2B2  | \
w:  dir  *  *  *  *  *  *  a  *  câ *  *  *  *  *  nım   SAZ  | 
c8 z2c4a2 g2f2 e2d2 c3d e2f2 g2a2  | 
w:  *  Sen de dir  *  *  *  dî  | 
gfed c2_1/4B2 B2A4B2 c3e d2c2 B2cB A4 z4  | \
w:  *  *  *  *  *  *  *  vâ ne  gön *  *  *  lüm   | 
A_1/4BAG A2c2 B2d2 c2B2 ABAG ^F4 d3c B4 d4  | 
w:  sen  *  *  *  *  *  *  *  *  *  *  *  *  *  *  sen *  *  de  | 
c3_1/4B A2c2 B3A G2A2 B6AG AG^F^E F4 |
w:  dir  *  *  *  *  *  *  a  câ *  *  nım    | 


